X: 211
T: A Good Night's Sleep
R: jig
M: 6/8
K: Amixolydian
|:B|EAE DED|EAA A2 B|cEE AEc|D2 =c GAB|
EAE DED|EAA c2 a|f/g/af dBF|GAF G2:|
|:g|ege dB/c/d|EAA A2 =C|D2 A d2 A|GB/c/d g2 d|
e/f/ge dBd|EAA c2 a|faf dBF|GAF G2:|

